img/calendar.svg

<svg id="calendar_svg" width="15" height="16" viewBox="0 0 15 16" fill="none" xmlns="http://www.w3.org/2000/svg">
<g clip-path="url(#clip0)">
<path d="M14.3125 1.625H11.25C11.25 1.25 11 1 10.625 1C10.25 1 10 1.25 10 1.625H5C5 1.25 4.75 1 4.375 1C4 1 3.75 1.25 3.75 1.625H0.6875C0.3125 1.625 0 1.9375 0 2.3125V15.3125C0 15.6875 0.3125 16 0.6875 16H14.3125C14.6875 16 15 15.6875 15 15.3125V2.3125C15 1.9375 14.6875 1.625 14.3125 1.625ZM13.75 14.75H1.25V6H13.75V14.75ZM13.75 5.375H1.25V2.875H3.75V3.5C3.75 3.875 4 4.125 4.375 4.125C4.75 4.125 5 3.875 5 3.5V2.875H10V3.5C10 3.875 10.25 4.125 10.625 4.125C11 4.125 11.25 3.875 11.25 3.5V2.875H13.75V5.375Z" fill="#333333"/>
<path d="M6.4375 12.0625C6.6875 12.3125 7.0625 12.3125 7.3125 12.0625L9.875 9.5C10.125 9.25 10.125 8.875 9.875 8.625C9.625 8.375 9.25 8.375 9 8.625L6.875 10.8125L6 9.9375C5.75 9.6875 5.375 9.6875 5.125 9.9375C4.875 10.1875 4.875 10.5625 5.125 10.8125L6.4375 12.0625Z" fill="#333333"/>
</g>
<defs>
<clipPath id="clip0">
<rect y="0.186279" width="15" height="15.0096" fill="white"/>
</clipPath>
</defs>
</svg>

<svg viewBox="0 0 15 16" fill="none" xmlns="http://www.w3.org/2000/svg"><g clip-path="url(#a)" fill="#000"><path d="M14.313 1.625H11.25C11.25 1.25 11 1 10.625 1S10 1.25 10 1.625H5C5 1.25 4.75 1 4.375 1s-.625.25-.625.625H.687A.694.694 0 0 0 0 2.313v13c0 .374.313.687.688.687h13.624a.694.694 0 0 0 .688-.688v-13a.694.694 0 0 0-.688-.687zM13.75 14.75H1.25V6h12.5v8.75zm0-9.375H1.25v-2.5h2.5V3.5c0 .375.25.625.625.625S5 3.875 5 3.5v-.625h5V3.5c0 .375.25.625.625.625s.625-.25.625-.625v-.625h2.5v2.5z"/><path d="M6.438 12.063c.25.25.625.25.875 0L9.874 9.5a.604.604 0 0 0 0-.875.604.604 0 0 0-.875 0l-2.125 2.188L6 9.937a.604.604 0 0 0-.875 0 .604.604 0 0 0 0 .876l1.313 1.25z"/></g><defs><clipPath id="a"><path fill="#000" d="M0 .186h15v15.01H0z"/></clipPath></defs></svg>
